Numix-GalliumOS/22/status/battery-060-charging.svg

<svg xmlns="http://www.w3.org/2000/svg" viewBox="0 0 22 22">
 <path d="m 8 3 l 0 2 l -3 0 l 0 14 l 12 0 l 0 -14 l -3 0 l 0 -2 l -6 0 z m 5 3 l -1 5 l 3 0 l -6 7 l 1 -5 l -3 0 l 6 -7 z" style="fill:#ececec;opacity:0.4;fill-opacity:1"/>
 <path d="m 5 9.4 0 9.6 l 12 0 0 -9.6 -4.68 0 l -0.32 1.6 l 3 0 -6 7 1 -5 -3 0 3.086 -3.6 -5.086 0 z" style="fill:#ececec;opacity:1;fill-opacity:1"/>
</svg>

<?xml version="1.0" encoding="UTF-8" standalone="no"?>
<svg
   xmlns:dc="http://purl.org/dc/elements/1.1/"
   xmlns:cc="http://creativecommons.org/ns#"
   xmlns:rdf="http://www.w3.org/1999/02/22-rdf-syntax-ns#"
   xmlns:svg="http://www.w3.org/2000/svg"
   xmlns="http://www.w3.org/2000/svg"
   xmlns:sodipodi="http://sodipodi.sourceforge.net/DTD/sodipodi-0.dtd"
   xmlns:inkscape="http://www.inkscape.org/namespaces/inkscape"
   width="22"
   viewBox="0 0 22 22"
   height="22"
   id="svg3019"
   version="1.1"
   inkscape:version="0.91 r"
   sodipodi:docname="xfpm-ups-060-charging.svg">
  <metadata
     id="metadata3031">
    <rdf:RDF>
      <cc:Work
         rdf:about="">
        <dc:format>image/svg+xml</dc:format>
        <dc:type
           rdf:resource="http://purl.org/dc/dcmitype/StillImage" />
      </cc:Work>
    </rdf:RDF>
  </metadata>
  <defs
     id="defs3029" />
  <sodipodi:namedview
     pagecolor="#ffffff"
     bordercolor="#666666"
     borderopacity="1"
     objecttolerance="10"
     gridtolerance="10"
     guidetolerance="10"
     inkscape:pageopacity="0"
     inkscape:pageshadow="2"
     inkscape:window-width="1366"
     inkscape:window-height="747"
     id="namedview3027"
     showgrid="false"
     inkscape:zoom="10.727273"
     inkscape:cx="11"
     inkscape:cy="11"
     inkscape:window-x="0"
     inkscape:window-y="21"
     inkscape:window-maximized="1"
     inkscape:current-layer="svg3019" />
  <path
     d="M 8 3 L 8 5 L 5 5 L 5 19 L 17 19 L 17 5 L 14 5 L 14 3 L 8 3 z M 13 6 L 12 11 L 15 11 L 9 18 L 10 13 L 7 13 L 13 6 z "
     opacity="0.4"
     fill="#ececec"
     id="path3023"
     style="fill:#ececec;fill-opacity:1" />
  <path
     style="opacity:1;fill:#ececec;fill-opacity:1"
     d="M 5,9.4003906 5,19 l 12,0 0,-9.5996094 -4.679687,0 L 12,11 l 3,0 -6,7 1,-5 -3,0 3.085938,-3.5996094 -5.085938,0 z"
     id="path3023-5"
     inkscape:connector-curvature="0" />
</svg>
